X: 158
T: No_66_Hunting_Song_(b).krn
N: Derived from No_66_Hunting_Song_(b).krn
%%abc-version 2.0
%%abcx-abcm2ps-target-version 5.9.1 (29 Sep 2008)
%%abc-creator hum2abc beta
%%abcx-conversion-date 2019/03/15 08:29:13
%%humdrum-veritas 55605318
%%humdrum-veritas-data 3951983381
%%linebreak <none>
%%barnumbers 0
L: 1/4
M: 3/4
K: Eb clef=bass
[K:clef=bass][M:3/4]F,F,G, ||  
[M:2/4]G,2 | 
G,2 ||  
[M:3/4]A,2-A,/A,/ ||  
[M:2/4]G,G, ||  
[M:3/4]F,F,2 | 
F,2-F,/G,/ ||  
[M:2/4]G,3/G,/ | 
E,E, | 
C,C, | 
z3/E,/ | 
E,2 | 
F,2 ||  
[M:3/4]E,C,2 ||  
[M:2/4]C,2 ||  
[M:3/4]C,C,2 |]  



